X:1
T:Valse.
T:Valse.
T:Op. 69, No. 2
T:Frédéric François Chopin
T:Fryderyk Franciszek Chopin
C:Frédéric François Chopin
Z:Fryderyk Franciszek Chopin
%%score { ( 1 4 ) | ( 2 3 ) }
L:1/8
Q:1/4=152
M:3/4
K:D
V:1 treble nm="Piano" snm="Pno."
V:4 treble 
V:2 bass 
V:3 bass 
V:1
"^Moderato" (!>!f2- |!p! fgfcdB | ^A4) (!>!f2- | fgfced | B4) (!>!f2- |!<(! fg^efbd')!<)! | %6
!mf! (d'2 ^e2) (!>!d'2- | d'2 =e2) (!>!c'2- |!>(! c'b^agfc)!>)! |!p! (dgfcdB | ^A4) (!>!f2- | %11
 fgfced | B4) (!>!f2- |"_cresc." ff'c'd'^ab) | (=agB"_rit."cde) | (gf"_dim."BdcF) | (B^EF^ABc) | %17
!p!"^a tempo" (dgfcdB | ^A4) (!>!f2- | fgfced | B4) (!>!f2- |!<(! fg^efbd')!<)! | %22
!mf! (d'2 ^e2) !>!d'2- | (d'2 =e2) (!>!c'2- |!>(! c'b^agfc)!>)! |!p! (dgfcdB | ^A4) (!>!f2- | %27
 fgfced | B4) (!>!f2 |!mf! f'c'd'^abf) | (=agB"_rit."cde) | (gf"_dim."!>(!BdcF)!>)! | %32
!p! B3 (FB_B) |:"^a tempo""^con anima" (_B3 Ace) |!>(! (g3 fcd)!>)! | (f3 eBc) | (e3 dcB) | %37
 (B3 Ace) | (g3 fcd) | (f3 eBc) | ^A3 cGc |"_a tempo" (F3 ^Ace) | (g3!>(! fcd)!>)! | %43
!>(! (f3 eBc)!>)! |!>(! (e3 dcB)!>)! | (B3 Ace) |!>(! (g3 fcd)!>)! | f3 e!f!(f'e' | %48
!>(! d'^c'=c'b^a=a!>)! |!>(! ^g=gfcdB!>)! | ^A2) z2 (=a2 | ^g=gfced | B2) z2 (a2 | %53
!<(! ^g=g^efbd'!<)! | d'2 ^e2) !>!d'2- | (d'2 =e2) !>!c'2 | (=c'b!>(!^a=a^g=g | f=fedcB!>)! | %58
 ^A4) (!>!g2 | fgfced | B4) (!>!f2 | f'c'd'^abf) |"_rit." (=agBceg) | (gfBdcF) |1 %64
 (!>!B3"_a tempo" FB_B) :|2 B2 z2"_a tempo" F2 ||[K:B]"_dolce" (dedcde) | (!>!g4 f2) | (dedcde) | %69
 (!>!g4 f2) | (f2 d'>)d' d'2 | (c'2 e>)e e2 | (d2 b>)b b2 | (a2 c>)c e2 | (dedcde) | %75
!>(! (g4 f2)!>)! | (dedcde) |!>(! (g4 f2)!>)! | (d2 b>)b !>!b2 | (a2 c>)c !>!c2 | B2 g>g !>!g2 | %81
 f2 A>A !>!e2 | ([Bd][ce][Bd][Fc][Bd][ce]) |!>(! ([Ag]4 [Af]2)!>)! | ([Bd][ce][Bd][Fc][Bd][ce]) | %85
!>(! ([Ag]4 [Af]2)!>)! | [df]2 [fd']>[fd'] [fd']2 | ([ec']2 [ce]>)[ce] [ce]2 | %88
 ([Bd]2 [db]>)[db] [db]2 | ([ca]2 [Ac]>)[Ac] [ce]2 |"_cresc." ([B=d][ce][Bd][Fc][Bd][ce]) | %91
 (!>![A=g]4 [Af]2) | ([B=d][ce][Bd][Fc][Bd][ce]) | (!>![A=g]4 [Af]2) | %94
"_dim." ([=df]2 [Fe])z/([Fe]/ [Bd]2) | [B=d]2 [^Ec]z/([E-c]/ [EB]2) | A2 c4- | [Fc]2 F2 (f2- || %98
[K:D]!f! fgfcdB | ^A4) (!>!f2- | fgfced | B4) (!>!f2- |!<(! fg^efbd')!<)! | (d'2 ^e2) !>!d'2- | %104
 (d'2 =e2) c'2- |!>(! (c'b^agfc)!>)! | (dgfcdB | ^A4) (f2- | fgfced | B4) (f2- | ff'c'd'^ab) | %111
"_rit." (=agBcde) | (gfBdcF) | B3 (FB_B) |"^a tempo" !>!_B3 Ace |!>(! (g3 fcd)!>)! | (f3 eBc) | %117
 (e3 dcB) | (B3 Ace) | (g3 fcd) | (f3 eBc) | (^A3 cGc) | (F3!<(! ^Ace)!<)! | (g3!>(! fcd)!>)! | %124
!>(! (f3 eBc)!>)! |!>(! (e3 dcB)!>)! | (B3 Ace) |!>(! (g3 fcd)!>)! | f3 e!f!(f'e' | %129
!>(! d'^c'=c'b^a=a | ^g=gfcdB!>)! | ^A2) z2 (=a2 | ^g=gfced | B2) z2 (a2 |!<(! ^g=g^efbd'!<)! | %135
 d'2 ^e2) !>!d'2- | (d'2 =e2) !>!c'2 | (=c'b!>(!^a=a^g=g | f=fedcB!>)! | ^A4) (!>!g2 | fgfced | %141
 B4) (!>!f2 |!f! f'!>(!c'd'^abf) |"_calando" (=agBceg)!>)! |!pp! (gfBdcF) | B2 z2 z2 |] %146
V:2
 z2 |!ped! B,,2 [F,B,D]2 [F,B,D]2!ped-up! |!ped! C,2 [F,CE]2 [F,CE]2!ped-up! | %3
!ped! ^A,,2 [F,^A,E]2 [F,A,E]2!ped-up! |!ped! B,,2 [F,B,D]2 [F,B,D]2!ped-up! | %5
!ped! B,,2 [F,B,D]2 [F,B,D]2!ped-up! |!ped! B,,2 [^G,B,D]2 [G,B,D]2!ped-up! | %7
!ped! B,,2 [=G,B,E]2 [G,B,E]2!ped-up! |!ped! B,,2 [F,CE]2 [F,^A,E]2!ped-up! | %9
!ped! B,,2 [F,B,D]2 [F,B,D]2!ped-up! |!ped! C,2 [F,CE]2 [F,CE]2!ped-up! | %11
!ped! ^A,,2 [F,^A,E]2 [F,A,E]2!ped-up! |!ped! B,,2 [F,B,D]2 [F,B,D]2!ped-up! | %13
!ped! D,2 [F,B,D]2 [F,B,D]2!ped-up! |!ped! E,2 [B,CG]2 z2!ped-up! | F,6 | [B,D]2 B,,2 z2 | %17
!ped! B,,2 [F,B,D]2 [F,B,D]2!ped-up! |!ped! C,2 [F,CE]2 [F,CE]2!ped-up! | %19
!ped! ^A,,2 [F,^A,E]2 [F,A,E]2!ped-up! |!ped! B,,2 [F,B,D]2 [F,B,D]2!ped-up! | %21
!ped! B,,2 [F,B,D]2 [F,B,D]2!ped-up! |!ped! B,,2 [^G,B,D]2 [G,B,D]2!ped-up! | %23
!ped! B,,2 [=G,B,E]2 [G,B,E]2!ped-up! |!ped! B,,2 [F,CE]2 [F,^A,E]2!ped-up! | %25
!ped! B,,2 [F,B,D]2 [F,B,D]2!ped-up! |!ped! C,2 [F,CE]2 [F,CE]2!ped-up! | %27
!ped! ^A,,2 [F,^A,E]2 [F,A,E]2!ped-up! |!ped! B,,2 [F,B,D]2 [F,B,D]2!ped-up! | %29
!ped! D,2 [F,B,D]2 [F,B,D]2!ped-up! | E,2 [G,C]2 z2 | F,6 | B,,2 [F,D]2 (D,2 |: %33
!ped! C,2) [G,A,E]2 [G,A,E]2!ped-up! |!ped! D,2 [F,A,D]2 [F,A,D]2!ped-up! | %35
!ped! A,,2 [A,CG]2 [A,EG]2!ped-up! |!ped! D,2 [A,DF]2 [A,DF]2!ped-up! | %37
!ped! C,2 [A,EG]2 [A,EG]2!ped-up! |!ped! D,2 [A,DF]2 [A,DF]2!ped-up! | %39
!ped! G,,2 [G,B,E]2 [G,B,E]2!ped-up! | [F,,F,]2"^rit." [F,CE]2 [F,B,E]2 | %41
!ped! [F,,F,]2 [F,CE]2 [F,^A,E]2!ped-up! |!ped! B,,2 [F,B,D]2 [F,B,D]2!ped-up! | %43
!ped! A,,2 [A,CG]2 [A,EG]2!ped-up! |!ped! D,2 [A,DF]2!ped-up! [A,DF]2 | %45
!ped! C,2 [A,EG]2!ped-up! [A,EG]2 |!ped! D,2 [A,DF]2!ped-up! [A,DF]2 | %47
!ped! G,,2 [G,E]2!ped-up! z2 |!ped! F,,2 [F,E]2 (^A,,2!ped-up! |!ped! B,,2) [F,D]2 [F,D]2!ped-up! | %50
!ped! C,2 [F,CE]2 [F,CE]2!ped-up! |!ped! ^A,,2 [F,CE]2 [F,CE]2!ped-up! | %52
!ped! B,,2 [F,B,D]2 [F,B,D]2!ped-up! |!ped! B,,2 [F,B,D]2 [F,B,D]2!ped-up! | %54
!ped! B,,2 [^G,B,D]2 [G,B,D]2!ped-up! |!ped! B,,2 [=G,B,E]2 [G,B,E]2!ped-up! | %56
!ped! B,,2 [F,^A,E]2 [F,A,E]2!ped-up! |!ped! B,,2 [F,B,D]2 [F,B,D]2!ped-up! | %58
!ped! C,2 [F,CE]2 [F,CE]2!ped-up! |!ped! ^A,,2 [F,^A,E]2 [F,CE]2!ped-up! | %60
!ped! B,,2 [F,B,D]2 [F,B,D]2!ped-up! |!ped! D,2 [F,B,D]2 [F,B,D]2!ped-up! | %62
!ped! E,2 [G,C]2!ped-up! z2 | F,6 |1 B,,2 [F,D]2 D,2 :|2 [B,D]2 B,,2 z2 || %66
[K:B]!ped! B,,2 [F,B,D]2 [F,B,D]2!ped-up! |!ped! A,,2 [F,CE]2 [F,CE]2!ped-up! | %68
!ped! B,,2 [F,B,D]2 [F,B,D]2!ped-up! |!ped! A,,2 [F,CE]2 [F,CE]2!ped-up! | %70
!ped! B,,2 [F,B,D]2 [F,B,D]2!ped-up! |!ped! F,,2 [F,A,E]2 [F,A,E]2!ped-up! | %72
!ped! B,,2 [F,B,D]2 [F,B,D]2!ped-up! |!ped! F,,2 [F,A,E]2 [F,A,E]2!ped-up! | %74
!ped! B,,2 [F,B,D]2 [F,B,D]2!ped-up! |!ped! A,,2 [F,CE]2 [F,CE]2!ped-up! | %76
!ped! B,,2 [F,B,D]2 [F,B,D]2!ped-up! |!ped! A,,2 [F,CE]2 [F,CE]2!ped-up! | %78
!ped! B,,2 [F,B,D]2 [F,B,D]2!ped-up! | C,2 [A,CF]2 [A,CF]2 |!ped! C,2 [G,C^E]2 [G,CE]2!ped-up! | %81
!ped! F,,2 [F,C=E]2 [F,CE]2!ped-up! |!ped! B,,2 [F,B,D]2 [F,B,D]2!ped-up! | %83
!ped! A,,2 [F,CE]2 [F,CE]2!ped-up! |!ped! B,,2 [F,B,D]2 [F,B,D]2!ped-up! | %85
!ped! A,,2 [F,CE]2 [F,CE]2!ped-up! |!ped! B,,2 [F,B,D]2 [F,B,D]2!ped-up! | %87
!ped! A,,2 [F,CE]2 [F,CE]2!ped-up! |!ped! B,,2 [F,B,D]2 [F,B,D]2!ped-up! | %89
!ped! A,,2 [F,CE]2 [F,CE]2!ped-up! |!ped! B,,2 [F,B,=D]2 [F,B,D]2!ped-up! | %91
!ped! A,,2 [F,CE]2 [F,CE]2!ped-up! |!ped! B,,2 [F,B,=D]2 [F,B,D]2!ped-up! | %93
!ped! A,,2 [F,CE]2 [F,CE]2!ped-up! |!ped! B,,2 [F,=D]2 (B,,2!ped-up! | %95
!ped! =G,,2) [C,^E,B,]2 [C,E,B,]2!ped-up! |!ped! F,,2 [C,F,A,]2 [C,F,A,]2!ped-up! | %97
!ped! F,,2 [F,A,=E]2 [F,A,E]2!ped-up! ||[K:D]!ped! B,,,2 [F,B,D]2 [F,B,D]2!ped-up! | %99
!ped! C,2 [F,CE]2 [F,CE]2!ped-up! |!ped! ^A,,2 [F,^A,E]2 [F,A,E]2!ped-up! | %101
!ped! B,,2 [F,B,D]2 [F,B,D]2!ped-up! |!ped! B,,2 [F,B,D]2 [F,B,D]2!ped-up! | %103
!ped! B,,2 [^G,B,D]2 [G,B,D]2!ped-up! |!ped! B,,2 [=G,B,E]2 [G,B,E]2!ped-up! | %105
!ped! B,,2 [F,CE]2 [F,^A,E]2!ped-up! |!ped! B,,2 [F,B,D]2 [F,B,D]2!ped-up! | %107
!ped! C,2 [F,CE]2 [F,CE]2!ped-up! |!ped! F,,2 [F,CE]2 [F,^A,E]2!ped-up! | %109
!ped! B,,2 [F,B,D]2 [F,B,D]2!ped-up! |!ped! D,2 [F,B,D]2 [F,B,D]2!ped-up! | %111
!ped! E,2 [B,CG]2 z2!ped-up! | F,6 | B,,2 [F,D]2 (D,2 |!ped! C,2) [G,A,E]2 [G,A,E]2!ped-up! | %115
!ped! D,2 [F,A,D]2 [F,A,D]2!ped-up! |!ped! A,,2 [A,CG]2 [A,EG]2!ped-up! | %117
!ped! D,2 [A,DF]2 [A,DF]2!ped-up! |!ped! C,2 [A,EG]2 [A,EG]2!ped-up! | %119
!ped! D,2 [A,DF]2 [A,DF]2!ped-up! |!ped! G,,2 [G,B,E]2 [G,B,E]2!ped-up! | %121
 [F,,F,]2 [F,CE]2 [F,B,E]2 |!ped! [F,,F,]2 [F,CE]2 [F,^A,E]2!ped-up! | %123
!ped! B,,2 [F,B,D]2 [F,B,D]2!ped-up! |!ped! A,,2 [A,CG]2 [A,EG]2!ped-up! | %125
!ped! D,2 [A,DF]2!ped-up! [A,DF]2 |!ped! C,2 [A,EG]2!ped-up! [A,EG]2 | %127
!ped! D,2 [A,DF]2!ped-up! [A,DF]2 |!ped! G,,2 [G,E]2!ped-up! z2 |!ped! F,,2 [F,E]2 (^A,,2!ped-up! | %130
!ped! B,,2) [F,D]2 [F,D]2!ped-up! |!ped! C,2 [F,CE]2 [F,CE]2!ped-up! | %132
!ped! ^A,,2 [F,CE]2 [F,CE]2!ped-up! |!ped! B,,2 [F,B,D]2 [F,B,D]2!ped-up! | %134
!ped! B,,2 [F,B,D]2 [F,B,D]2!ped-up! |!ped! B,,2 [^G,B,D]2 [G,B,D]2!ped-up! | %136
!ped! B,,2 [=G,B,E]2 [G,B,E]2!ped-up! |!ped! B,,2 [F,^A,E]2 [F,A,E]2!ped-up! | %138
!ped! B,,2 [F,B,D]2 [F,B,D]2!ped-up! |!ped! C,2 [F,CE]2 [F,CE]2!ped-up! | %140
!ped! ^A,,2 [F,^A,E]2 [F,CE]2!ped-up! |!ped! B,,2 [F,B,D]2 [F,B,D]2!ped-up! | %142
!ped! D,2 [F,B,D]2 [F,B,D]2!ped-up! |!ped! E,2 [G,C]2!ped-up! z2 | F,6 | [B,D]2 B,,2 z2 |] %146
V:3
 x2 | x6 | x6 | x6 | x6 | x6 | x6 | x6 | x6 | x6 | x6 | x6 | x6 | x6 | x6 | F,2 [B,D]2 [^A,E]2 | %16
 x6 | x6 | x6 | x6 | x6 | x6 | x6 | x6 | x6 | x6 | x6 | x6 | x6 | x6 | x6 | F,2 [B,D]2 [^A,E]2 | %32
 x6 |: x6 | x6 | x6 | x6 | x6 | x6 | x6 | x6 | x6 | x6 | x6 | x6 | x6 | x6 | x6 | x6 | x6 | x6 | %51
 x6 | x6 | x6 | x6 | x6 | x6 | x6 | x6 | x6 | x6 | x6 | x6 | F,2 [B,D]2 [^A,E]2 |1 x6 :|2 x6 || %66
[K:B] x6 | x6 | x6 | x6 | x6 | x6 | x6 | x6 | x6 | x6 | x6 | x6 | x6 | x6 | x6 | x6 | x6 | x6 | %84
 x6 | x6 | x6 | x6 | x6 | x6 | x6 | x6 | x6 | x6 | x6 | x6 | x6 | x6 ||[K:D] x6 | x6 | x6 | x6 | %102
 x6 | x6 | x6 | x6 | x6 | x6 | x6 | x6 | x6 | x6 | F,2 [B,D]2 [^A,E]2 | x6 | x6 | x6 | x6 | x6 | %118
 x6 | x6 | x6 | x6 | x6 | x6 | x6 | x6 | x6 | x6 | x6 | x6 | x6 | x6 | x6 | x6 | x6 | x6 | x6 | %137
 x6 | x6 | x6 | x6 | x6 | x6 | x6 | F,2 [B,D]2 [^A,E]2 | x6 |] %146
V:4
 x2 | x6 | x6 | x6 | x6 | x6 | x6 | x6 | x6 | x6 | x6 | x6 | x6 | x6 | x6 | x6 | x6 | x6 | x6 | %19
 x6 | x6 | x6 | x6 | x6 | x6 | x6 | x6 | x6 | x6 | x6 | x6 | x6 | x6 |: x6 | x6 | x6 | x6 | x6 | %38
 x6 | x6 | x4 G2 | x6 | x6 | x6 | x6 | x6 | x6 | x6 | x6 | x6 | x6 | x6 | x6 | x6 | x6 | x6 | x6 | %57
 x6 | x6 | x6 | x6 | x6 | x6 | x6 |1 x6 :|2 x6 ||[K:B] x6 | x6 | x6 | x6 | x6 | x6 | x6 | x6 | x6 | %75
 x6 | x6 | x6 | x6 | x6 | x6 | x6 | x6 | x6 | x6 | x6 | x6 | x6 | x6 | x6 | x6 | x6 | x6 | x6 | %94
 x6 | x6 | F6- | x6 ||[K:D] x6 | x6 | x6 | x6 | x6 | x6 | x6 | x6 | x6 | x6 | x6 | x6 | x6 | x6 | %112
 x6 | x6 | x6 | x6 | x6 | x6 | x6 | x6 | x6 | x6 | x6 | x6 | x6 | x6 | x6 | x6 | x6 | x6 | x6 | %131
 x6 | x6 | x6 | x6 | x6 | x6 | x6 | x6 | x6 | x6 | x6 | x6 | x6 | x6 | x6 |] %146

